X:1
T:The Friend I Need
T:The Friend I Need
T:J. Wesley Hughes
T:Edwin V. Adams, 1909
T:Public Domain Courtesy of the Cyber Hymnal™
T:Public Domain Courtesy of the Cyber Hymnal™
C:J. Wesley Hughes
Z:Public Domain
Z:Courtesy of the Cyber Hymnal™
%%score ( 1 2 ) ( 3 4 )
L:1/8
Q:1/4=98
M:4/4
K:F
V:1 treble 
V:2 treble 
V:3 bass 
V:4 bass 
V:1
 [FA]2 | [Fc][Fc][Fc][Fd] [Fc]2 [FA]2 | G4 [CF]2 (EF) | [EG][EG][EG][EG] [FA]2 [GB]2 | %4
w: 1.~I|need just such a friend as|Je- sus To *|lead me on the up- ward|
w: 2.~I|need just such a friend as|Je- sus! He *|bore my sins up- on the|
w: 3.~I|need just such a friend as|Je- sus When *|cross- ing Jor- dan’s swell- ing|
 [FA]6 [FA]2 | [Fc][Fc][Fc][Fd] [Fc]2 [FA][_EA] | [DG][DF][CE][B,D] [A,C]2 [A,C]C | %7
w: way; A|friend that will be near When the|dark- est clouds ap- pear, Oh, I|
w: tree; I’ll|give to Him my heart! Ne- ver|say a- gain— “De- part!” For I|
w: tide; Tho’|ser- aph an- gels wait, When I|reach the pearl- y gate, I will|
 [CF][EG][FA][Fd] [Fc]2 [FA]2 | [EG]4 [CF]3 ||"^Refrain" [FA] | [Fc][Fc][Fc][Fd] [Fc]2 [FA]F | %11
w: need just such a friend as|Je- sus.|||
w: need just such a friend as|Je- sus.|I|need just such a friend, One on|
w: need just such a friend as|Je- sus.|||
 [Fd][Fd][Fd][Fd] [Fc]3 [FA] | [Fc][Ec][Fc][Fd] [Fc]2 [FA]2 | [FA]4 [EG]2 [EB]2 | %14
w: |||
w: whom I can de- pend, I|need just such a friend as|Je- sus, A|
w: |||
 [FA][FA][Gc][Gc] F2 [_EA][EA] | [DG][DF][CE][B,D] [A,C]2 [A,C]C | [CF][EG][FA][Fd] [Fc]2 [FA]2 | %17
w: |||
w: friend that will be true As no|o- ther one will do, Oh, I|need just such a friend as|
w: |||
 [EG]4 [CF]2 |] %18
w: |
w: Je- sus.|
w: |
V:2
 x2 | x8 | (E2 C2) C2 x2 | x8 | x8 | x8 | x7 C | x8 | x7 || x | x7 F | x8 | x8 | x8 | x4 F2 x2 | %15
 x7 C | x8 | x6 |] %18
V:3
 [F,C]2 | [F,A,][F,A,][F,A,][F,B,] [F,A,]2 [F,C]2 | [C,B,]4 [F,A,]2 ([G,B,][F,A,]) | %3
 [C,C][C,C][C,C][C,C] [C,C]2 [C,C]2 | [F,C]6 [F,C]2 | [F,A,][F,A,][F,A,][F,B,] [F,A,]2 [F,C][F,C] | %6
 [B,,B,][B,,B,][B,,B,][B,,F,] [F,,F,]2 [F,,F,][F,,F,A,] | [A,,C][C,C][F,C][F,B,] [F,A,]2 [F,C]2 | %8
 [C,B,]4 [F,A,]3 || [F,C] | [F,A,][F,A,][F,A,][F,B,] [F,A,]2 [F,C][F,A,] | %11
 [B,,B,][C,B,][D,B,][E,B,] [F,A,]3 [F,C] | [F,A,][G,B,][A,C]B, [A,C]2 [F,C]2 | %13
 [C,C]4 [C,C]2 [C,C]2 | [F,C][F,C][E,B,][E,B,] [D,A,]2 [C,F,][C,F,] | %15
 [B,,B,][B,,B,][B,,B,][B,,F,] [F,,F,]2 [F,,F,][F,,F,A,] | [A,,C][C,C][F,C][F,B,] [F,A,]2 [F,C]2 | %17
 [C,B,]4 [F,A,]2 |] %18
V:4
 x2 | x8 | x8 | x8 | x8 | x8 | x8 | x8 | x7 || x | x8 | x8 | x3 B, x4 | x8 | x8 | x8 | x8 | x6 |] %18

